svg/wasm.svg

<svg viewBox="0 0 20 20" xmlns="http://www.w3.org/2000/svg">
<rect width="20" height="20" fill="#654FF0"/>
<path d="M6.41364 8.34106L7.64788 14.3725H9.30128L11.4204 5.5H9.79032L8.48622 11.6013H8.46294L7.2287 5.5H5.66845L4.31778 11.5314H4.29449L3.15341 5.5H1.5L3.38628 14.3725H5.08626L6.39036 8.34106H6.41364Z" fill="white"/>
<path fill-rule="evenodd" clip-rule="evenodd" d="M13.284 5.5H15.8922L18.5004 14.3725H16.7772L16.2183 12.3931H13.2375L12.795 14.3725H11.1416L13.284 5.5ZM14.2854 7.68902L13.5635 10.9493H15.8224L14.984 7.68902H14.2854Z" fill="white"/>
</svg>

<svg xmlns="http://www.w3.org/2000/svg" viewBox="0 0 20 20">
  <path fill="#654FF0" d="M0 0h20v20H0z"/>
  <path fill="#fff" d="m6.41 8.34 1.24 6.03H9.3l2.12-8.87H9.79l-1.3 6.1h-.03L7.23 5.5H5.67l-1.35 6.03h-.03L3.15 5.5H1.5l1.89 8.87h1.7l1.3-6.03h.02Z"/>
  <path fill="#fff" fill-rule="evenodd" d="M13.28 5.5h2.61l2.61 8.87h-1.72l-.56-1.98h-2.98l-.45 1.98h-1.65l2.14-8.87Zm1 2.19-.72 3.26h2.26l-.84-3.26h-.7Z" clip-rule="evenodd"/>
</svg>
